melody-of-light/img/icons/cogwheel.svg

<svg width="28" height="28" viewBox="0 0 28 28" fill="none" xmlns="http://www.w3.org/2000/svg">
<g clip-path="url(#clip0)">
<path d="M26.7906 17.122C26.7894 17.1208 26.7871 17.1197 26.7859 17.1173L24.9916 15.4688C25.0522 14.9718 25.0837 14.4795 25.0837 14C25.0837 13.5205 25.0522 13.0282 24.9916 12.5312L26.7906 10.878C27.3844 10.3192 27.5197 9.4325 27.1172 8.71383L25.1374 5.29083C24.7407 4.585 23.8786 4.249 23.0887 4.49517L20.7601 5.23017C19.9702 4.61533 19.1186 4.12067 18.2226 3.75667L17.6847 1.36617C17.5086 0.575167 16.7934 0 15.9837 0H12.0171C11.2074 0 10.4922 0.575167 10.3161 1.365L9.77824 3.75667C8.88224 4.12067 8.03057 4.61533 7.24074 5.23017L4.90974 4.49517C4.12457 4.25133 3.26007 4.58383 2.86807 5.28383L0.880073 8.72083C0.481073 9.4325 0.616407 10.3192 1.21607 10.8827L3.01041 12.5312C2.94857 13.0282 2.91707 13.5205 2.91707 14C2.91707 14.4795 2.94857 14.9718 3.00924 15.4688L1.21024 17.122C0.616407 17.6808 0.481073 18.5675 0.883573 19.285L2.86341 22.708C3.26007 23.415 4.12107 23.7498 4.91207 23.5048L7.24074 22.7698C8.03057 23.3847 8.88224 23.8793 9.77824 24.2433L10.3161 26.6327C10.4922 27.4248 11.2074 28 12.0171 28H15.9837C16.7934 28 17.5086 27.4248 17.6847 26.635L18.2226 24.2433C19.1186 23.8793 19.9702 23.3858 20.7601 22.7698L23.0911 23.5048C23.8786 23.751 24.7407 23.415 25.1339 22.715L27.1219 19.278C27.5197 18.5675 27.3844 17.6808 26.7906 17.122ZM14.0004 19.8333C10.7839 19.8333 8.16707 17.2165 8.16707 14C8.16707 10.7835 10.7839 8.16667 14.0004 8.16667C17.2169 8.16667 19.8337 10.7835 19.8337 14C19.8337 17.2165 17.2169 19.8333 14.0004 19.8333Z" fill="#EC863D"/>
</g>
<defs>
<clipPath id="clip0">
<rect width="28" height="28" fill="white"/>
</clipPath>
</defs>
</svg>

<svg width="28" height="28" fill="none" xmlns="http://www.w3.org/2000/svg"><g clip-path="url(#clip0)"><path d="M26.79 17.122c0-.001-.003-.002-.004-.005l-1.794-1.648c.06-.497.092-.99.092-1.469 0-.48-.032-.972-.092-1.469l1.799-1.653a1.772 1.772 0 00.326-2.164l-1.98-3.423c-.396-.706-1.258-1.042-2.048-.796l-2.329.735a10.672 10.672 0 00-2.537-1.473l-.538-2.39A1.756 1.756 0 0015.984 0h-3.967c-.81 0-1.525.575-1.7 1.365l-.539 2.392A10.67 10.67 0 007.241 5.23L4.91 4.495c-.785-.244-1.65.089-2.042.789L.88 8.72a1.77 1.77 0 00.336 2.162L3.01 12.53c-.061.497-.093.99-.093 1.469 0 .48.032.972.092 1.469L1.21 17.122a1.77 1.77 0 00-.326 2.163l1.98 3.423c.396.707 1.257 1.042 2.048.797l2.329-.735a10.63 10.63 0 002.537 1.473l.538 2.39A1.755 1.755 0 0012.017 28h3.967c.81 0 1.525-.575 1.7-1.365l.539-2.392a10.633 10.633 0 002.537-1.473l2.331.735c.788.246 1.65-.09 2.043-.79l1.988-3.437a1.77 1.77 0 00-.331-2.156zM14 19.833A5.84 5.84 0 018.167 14 5.84 5.84 0 0114 8.167 5.84 5.84 0 0119.834 14 5.84 5.84 0 0114 19.833z" fill="#EC863D"/></g><defs><clipPath id="clip0"><path fill="#fff" d="M0 0h28v28H0z"/></clipPath></defs></svg>
